assets/img/braze_icons/shield-tick.svg

<svg fill="none" height="24" viewBox="0 0 24 24" width="24" xmlns="http://www.w3.org/2000/svg"><path clip-rule="evenodd" d="m11.714 1.08843c.1897-.02741.3824-.02741.5721 0 .2186.03159.422.10845.5836.16947l.0432.01632 5.4925 2.05952c.6178.23065 1.1603.4332 1.5781.80143.3655.32212.6471.72841.8204 1.18376.198.52051.1972 1.09962.1963 1.75906l-.0002 4.92191c0 2.8266-1.5373 5.1832-3.199 6.9144-1.6729 1.7428-3.587 2.9737-4.5991 3.5642l-.041.024c-.1847.1085-.4244.2492-.7415.3173-.2595.0556-.5793.0556-.8387 0-.3172-.068-.5569-.2088-.7416-.3173l-.041-.024c-1.01208-.5905-2.92612-1.8214-4.59902-3.5642-1.66177-1.7312-3.19906-4.0878-3.19906-6.9144l-.00013-4.9219c-.00096-.65944-.0018-1.23856.19627-1.75907.17327-.45535.45483-.86164.82035-1.18376.41782-.36822.96036-.57078 1.57815-.80143l5.49244-2.05952.0433-.01632c.1615-.06102.365-.13788.5836-.16947zm4.4931 8.61868c.3905-.39053.3905-1.02369 0-1.41422-.3905-.39052-1.0237-.39052-1.4142 0l-3.7929 3.79291-1.29289-1.2929c-.39053-.3905-1.02369-.3905-1.41422 0-.39052.3905-.39052 1.0237 0 1.4142l2.00001 2c.3905.3905 1.0237.3905 1.4142 0z" fill="#801ed7" fill-rule="evenodd"/></svg>

<svg width="24" height="24" viewBox="0 0 24 24" fill="none" xmlns="http://www.w3.org/2000/svg">
<path fill-rule="evenodd" clip-rule="evenodd" d="M11.714 1.08843C11.9037 1.06102 12.0964 1.06102 12.2861 1.08843C12.5047 1.12002 12.7081 1.19688 12.8697 1.2579L12.9129 1.27422L18.4054 3.33374C19.0232 3.56439 19.5657 3.76694 19.9835 4.13517C20.349 4.45729 20.6306 4.86358 20.8039 5.31893C21.0019 5.83944 21.0011 6.41855 21.0002 7.07799L21 11.9999C21 14.8265 19.4627 17.1831 17.801 18.9143C16.1281 20.6571 14.214 21.888 13.2019 22.4785L13.1609 22.5025C12.9762 22.611 12.7365 22.7517 12.4194 22.8198C12.1599 22.8754 11.8401 22.8754 11.5807 22.8198C11.2635 22.7518 11.0238 22.611 10.8391 22.5025L10.7981 22.4785C9.78602 21.888 7.87198 20.6571 6.19908 18.9143C4.53731 17.1831 3.00002 14.8265 3.00002 11.9999L2.99989 7.078C2.99893 6.41856 2.99809 5.83944 3.19616 5.31893C3.36943 4.86358 3.65099 4.45729 4.01651 4.13517C4.43433 3.76695 4.97687 3.56439 5.59466 3.33374L11.0871 1.27422L11.1304 1.2579C11.2919 1.19688 11.4954 1.12002 11.714 1.08843ZM16.2071 9.70711C16.5976 9.31658 16.5976 8.68342 16.2071 8.29289C15.8166 7.90237 15.1834 7.90237 14.7929 8.29289L11 12.0858L9.70711 10.7929C9.31658 10.4024 8.68342 10.4024 8.29289 10.7929C7.90237 11.1834 7.90237 11.8166 8.29289 12.2071L10.2929 14.2071C10.6834 14.5976 11.3166 14.5976 11.7071 14.2071L16.2071 9.70711Z" fill="#801ED7"/>
</svg>
